X:303
T:Juice of the Barley. (p)1689.PLFD.303
T:Cold And Raw. (p)1689.PLFD.303
M:6/4
L:1/4
Q:3/4=110
S:Playford, Dancing Master,7th Ed,3rd.Supp,1689.
O:England
H:1689.
Z:Chris Partington.
K:C
A2 A e2 d|efg G2 G| A2 A e2 c| A3 c3:||:c2 c c2 B/c/|d2 d d2 d|
e2 e a2g| e3 g3| c2 c c2 B/c/| d2 d d>ef|e>dc (Bc)G| A3 e3:|
